src/components/icon2.svg

<svg
    xmlns="http://www.w3.org/2000/svg"
    xml:space="preserve"
    version="1.1"
    style="shape-rendering:geometricPrecision; text-rendering:geometricPrecision; image-rendering:optimizeQuality; fill-rule:evenodd; clip-rule:evenodd"
    viewBox="0 0 11.67 37.63"
    xmlns:xlink="http://www.w3.org/1999/xlink"
>
<defs></defs>
<g id="Layer_x0020_1">
  <metadata id="CorelCorpID_0Corel-Layer"></metadata>
  <path
    class="fil0"
    d="M7.63 35.26c-0.02,0.13 0.01,0.05 -0.06,0.14 -0,0 -0.08,0.07 -0.11,0.1 -0.42,0.25 -0.55,0.94 -0.23,1.4 0.68,0.95 2.66,0.91 3.75,0.21 0.2,-0.13 0.47,-0.3 0.57,-0.49 0.09,-0.02 0.04,0.03 0.11,-0.07l-1.35 -1.24c-0.78,-0.78 -1.25,-1.9 -2.07,-0.62 -0.11,0.18 -0.06,0.16 -0.22,0.26 -0.4,-0.72 -0.95,-1.79 -1.26,-2.59 0.82,0.02 1.57,-0.12 2.16,-0.45 0.49,-0.27 1.15,-0.89 1.33,-1.4 0.1,-0.06 0.02,0.01 0.06,-0.1 -0.24,-0.16 -0.87,-0.37 -1.19,-0.52 -0.4,-0.19 -0.73,-0.39 -1.09,-0.62 -0.25,-0.16 -0.85,-0.6 -1.18,-0.3 -0.35,0.32 -0.32,0.83 -0.53,1.17 -0.71,-0.3 -0.55,-0.26 -0.84,-1.22 -0.15,-0.5 -0.31,-1.12 -0.41,-1.66l0.03 -0.13c0.56,0.23 1.28,0.37 1.99,0.28 0.56,-0.07 1.33,-0.42 1.62,-0.71l0.1 -0.1c-0.74,-0.68 -1.09,-1.2 -1.65,-1.99 -1.09,-1.52 -1.2,-0.28 -1.92,0.17 -0.26,-0.79 -0.73,0.2 -0.12,-2.76 0.06,-0.3 0.19,-0.7 0.2,-0.98 0.18,0.08 0.01,-0.01 0.11,0.08 0.05,0.05 0.07,0.07 0.1,0.12 0.94,1.17 3.63,0.82 4.21,0.01 0.13,-0.02 0.06,0.03 0.1,-0.1 -1.14,-0.81 -1.91,-2.89 -2.58,-2.67 -0.29,0.09 -0.78,0.63 -0.93,0.87 -0.54,-0.48 -0.36,-0.63 -0.38,-0.81 0.01,-0.01 0.03,-0.04 0.03,-0.03 0.01,0.02 0.36,-0.35 0.45,-0.6 0.13,-0.35 0.04,-0.65 -0.05,-0.95 0.06,-0.41 0.33,-1.33 0.28,-1.71 0.22,-0.05 0.19,0.05 0.45,0.17 0.47,0.23 1.17,0.33 1.7,0.32 0.62,-0 1.74,-0.39 1.94,-0.75 0.14,-0.02 0.05,0.06 0.13,-0.09 -1.05,-1.1 -0.7,-0.64 -1.62,-1.92 -0.58,-0.81 -0.9,-1.27 -1.9,0.12 -0.44,-0.5 -0.64,-0.69 -0.66,-1.24 0.02,-0.31 0.15,-0.36 0.08,-0.73 -0.04,-0.24 -0.14,-0.41 -0.29,-0.59l-0.47 -2.54c0.09,-0.14 -0.09,-0.1 0.2,-0.05 0.06,0.01 0.19,0.05 0.3,0.07 0.54,0.09 1.47,0.01 1.95,-0.15 0.57,-0.19 1.53,-0.8 1.68,-1.18 0.16,-0.07 0.05,0.02 0.15,-0.13 -0.12,-0.15 -0.95,-0.65 -1.15,-0.8 -1.43,-1.08 -2.21,-2.77 -3.16,-0.38 -0.2,-0.1 -0.75,-0.55 -0.83,-0.74 -0.15,-0.35 -0.21,-0.81 -0.37,-1.15l-0.1 -0.25c-0.03,-0.3 -0.44,-1.33 -0.57,-1.64 -0.2,-0.51 -0.47,-1.09 -0.64,-1.6l-0.55 0c0.14,0.42 0.36,0.84 0.53,1.28 0.12,0.3 0.19,0.35 0.06,0.66l-0.21 0.52c-0.01,0.01 -0.01,0.02 -0.02,0.03 -0.06,0.1 -0.03,0.05 -0.06,0.09 -1.44,-1.03 -1.66,-0.73 -2.07,0.46 -0.16,0.46 -0.3,0.93 -0.5,1.36l-0.64 1.28c0.06,0.07 -0,0.03 0.1,0.03 0.05,0.05 0.02,0.03 0.1,0.08l0.49 0.14c0.23,0.05 0.44,0.09 0.66,0.1 0.55,0.04 0.94,-0.06 1.35,-0.19 0.54,-0.18 1.09,-0.44 1.5,-0.82 0.15,-0.14 0.24,-0.3 0.4,-0.41l0.46 1.66c0.03,0.74 -0.09,0.6 0.27,1.21 0.01,0.01 0.01,0.02 0.02,0.03 0.01,0.01 0.01,0.02 0.02,0.04l0.07 0.11c-0.02,0.22 0.19,1.01 0.24,1.29 0.09,0.46 -0.21,0.79 -0.3,1.2 -0.55,-0.23 -1.25,-1.06 -1.66,-0.23 -0.12,0.25 -0.17,0.36 -0.26,0.62 -0.33,1.01 -0.63,1.61 -1.06,2.43l0.12 0.04 0.23 0.11c0.06,0.02 0.17,0.04 0.25,0.06 0.17,0.04 0.34,0.08 0.52,0.09 0.29,0.02 0.93,0.07 1.12,-0.13 0.42,0.01 1.24,-0.49 1.51,-0.71 0.01,0.01 0.03,0 0.04,0.02l0.09 0.06c-0.04,0.29 0.02,0.41 0.03,0.7l-0.05 1.41c-0.06,1.12 -0.29,1.06 -0.76,1.69 -0.08,-0.07 -0.03,-0.01 -0.11,-0.11 -0.03,-0.03 -0.06,-0.08 -0.09,-0.11 -0.2,-0.25 -0.38,-0.54 -0.7,-0.69 -0.7,-0.32 -1.52,1.73 -2.82,2.61 0.04,0.2 -0.01,0.06 0.1,0.11 0.25,0.3 1,0.67 1.5,0.78 0.35,0.08 0.71,0.08 1.09,0.05 0.25,-0.02 0.82,-0.16 0.92,-0.13 -0.16,0.69 -0.35,1.35 -0.52,2.03 -0.25,1 -0.03,0.77 -0.98,1.53 -0.3,-0.31 -0.33,-0.77 -0.77,-1.02 -0.42,-0.25 -0.91,0.35 -1.12,0.55 -0.33,0.32 -0.58,0.6 -0.97,0.89 -0.19,0.14 -0.34,0.26 -0.53,0.4 -0.14,0.11 -0.43,0.29 -0.53,0.4 0.1,0.15 -0.02,0.06 0.15,0.13 0.09,0.22 0.35,0.38 0.54,0.52 0.22,0.16 0.43,0.29 0.69,0.39 0.43,0.17 1.32,0.31 1.87,0.23l0.23 -0.05c0.01,-0 0.03,-0.02 0.04,-0.02 0.01,-0 0.02,-0.01 0.03,-0.02 0.32,0.05 0.52,-0.18 0.79,-0.24l-0.02 0.66c0,0.77 -0.24,0.75 0.16,1.51l0.04 0.07c0,0.01 0.01,0.03 0.02,0.04 -0.05,0.35 0.18,1.03 0.24,1.4 -0.23,0.18 -0.34,0.33 -0.51,0.41 -0.75,-1.17 -0.82,-1.52 -1.92,-0.43 -0.32,0.31 -0.59,0.57 -0.95,0.86 -0.23,0.19 -0.95,0.65 -1.05,0.81l0.13 0.1c0.88,1.15 3.14,1.5 4.1,0.82 0.47,-0.34 0.54,-0.56 0.52,-1.34l0.67 1.84c0.03,0.16 0.06,0.28 0.12,0.42 0.03,0.06 0.05,0.12 0.09,0.17 0.1,0.15 0.03,0.06 0.13,0.14 -0,0.29 0.14,0.22 0.06,0.56 -0.03,0.13 -0.14,0.43 -0.19,0.53 -1.94,-1.27 -1.57,-0.02 -2.28,1.76 -0.16,0.41 -0.37,0.77 -0.53,1.2 0.09,0.08 0.01,0.03 0.15,0.03 0.29,0.33 1.66,0.28 2.36,-0.01 0.48,-0.2 0.96,-0.46 1.3,-0.82 0.15,-0.16 0.16,-0.3 0.38,-0.33 0.14,0.08 0.17,0.19 0.27,0.36zm-3.62 -12.85c0.13,-0.01 0.31,-0.15 0.55,-0.19 -0.01,0.45 0.02,0.74 -0.34,0.45 -0.06,-0.05 -0.09,-0.06 -0.12,-0.09 -0.09,-0.1 -0.04,-0.01 -0.09,-0.17zm1.92 -12.29l-0.04 0.13c-0.07,-0.02 -0.17,-0.02 -0.21,-0.03 -0.27,-0.08 -0.09,0.04 -0.16,-0.16 0.12,-0.08 0.18,-0.23 0.34,-0.35l0.08 0.4zm1.33 3.05l-0.4 0.17c-0,-0.08 -0,-0.15 -0.02,-0.23 -0.02,-0.09 -0.03,-0.07 -0.05,-0.11l0.07 -0.16c0.21,0.11 0.28,0.16 0.4,0.32zm-1.54 6.48l0.16 -0.51c0.17,0.07 0.25,0.14 0.36,0.29l-0.52 0.22zm0.28 10.88l-0.09 -0.38 0.37 0.07c-0.02,0.1 -0.03,0.13 -0.09,0.19 -0.13,0.15 0.01,0.06 -0.19,0.12zm-1.05 -5.97c0.06,0.12 0.16,0.16 0.26,0.23 -0.09,0.14 -0.22,0.18 -0.37,0.21 -0,-0.02 -0.02,-0.27 -0.02,-0.27 0.04,-0.19 -0.06,-0.09 0.13,-0.16zm1.03 -8.01c-0.09,-0.02 -0.15,-0.02 -0.22,-0.07 -0.21,-0.13 -0.08,-0.02 -0.14,-0.18 0.15,-0.05 0.21,-0.15 0.45,-0.24l-0.08 0.48zm0.57 16.58l-0.45 -0c0.02,-0.18 0.12,-0.3 0.26,-0.42l0.18 0.42zm-1.45 -3.7l-0.19 -0.23c-0.06,-0.07 -0.1,-0.13 -0.17,-0.19 -0.24,-0.23 -0.29,-0.14 -0.36,-0.36l0.46 -0.19c0.07,0.14 0.25,0.78 0.26,0.97zm0.37 -23.67l-0.12 -0.57 0.54 0.21c-0.07,0.16 -0.27,0.31 -0.41,0.36zm-1.46 -3.02c-0.07,0.01 -0.19,-0.04 -0.3,-0.06 -0.04,-0.01 -0.14,-0.02 -0.18,-0.03 -0.15,-0.07 -0.06,0.04 -0.14,-0.13 0.11,-0.07 0.2,-0.27 0.37,-0.4 0.13,0.13 0.2,0.43 0.24,0.62z"
  ></path>
</g>
</svg>

<svg width="12" height="38" viewBox="0 0 12 38" fill="none" xmlns="http://www.w3.org/2000/svg">
<g id="icon2 1" clip-path="url(#clip0_1_2)">
<g id="Layer_x0020_1">
<path id="Vector" fill-rule="evenodd" clip-rule="evenodd" d="M7.63 35.26C7.61 35.39 7.64 35.31 7.57 35.4C7.57 35.4 7.49 35.47 7.46 35.5C7.04 35.75 6.91 36.44 7.23 36.9C7.91 37.85 9.89 37.81 10.98 37.11C11.18 36.98 11.45 36.81 11.55 36.62C11.64 36.6 11.59 36.65 11.66 36.55L10.31 35.31C9.53 34.53 9.06 33.41 8.24 34.69C8.13 34.87 8.18 34.85 8.02 34.95C7.62 34.23 7.07 33.16 6.76 32.36C7.58 32.38 8.33 32.24 8.92 31.91C9.41 31.64 10.07 31.02 10.25 30.51C10.35 30.45 10.27 30.52 10.31 30.41C10.07 30.25 9.44 30.04 9.12 29.89C8.72 29.7 8.39 29.5 8.03 29.27C7.78 29.11 7.18 28.67 6.85 28.97C6.5 29.29 6.53 29.8 6.32 30.14C5.61 29.84 5.77 29.88 5.48 28.92C5.33 28.42 5.17 27.8 5.07 27.26L5.1 27.13C5.66 27.36 6.38 27.5 7.09 27.41C7.65 27.34 8.42 26.99 8.71 26.7L8.81 26.6C8.07 25.92 7.72 25.4 7.16 24.61C6.07 23.09 5.96 24.33 5.24 24.78C4.98 23.99 4.51 24.98 5.12 22.02C5.18 21.72 5.31 21.32 5.32 21.04C5.5 21.12 5.33 21.03 5.43 21.12C5.48 21.17 5.5 21.19 5.53 21.24C6.47 22.41 9.16 22.06 9.74 21.25C9.87 21.23 9.8 21.28 9.84 21.15C8.7 20.34 7.93 18.26 7.26 18.48C6.97 18.57 6.48 19.11 6.33 19.35C5.79 18.87 5.97 18.72 5.95 18.54C5.96 18.53 5.98 18.5 5.98 18.51C5.99 18.53 6.34 18.16 6.43 17.91C6.56 17.56 6.47 17.26 6.38 16.96C6.44 16.55 6.71 15.63 6.66 15.25C6.88 15.2 6.85 15.3 7.11 15.42C7.58 15.65 8.28 15.75 8.81 15.74C9.43 15.74 10.55 15.35 10.75 14.99C10.89 14.97 10.8 15.05 10.88 14.9C9.83 13.8 10.18 14.26 9.26 12.98C8.68 12.17 8.36 11.71 7.36 13.1C6.92 12.6 6.72 12.41 6.7 11.86C6.72 11.55 6.85 11.5 6.78 11.13C6.74 10.89 6.64 10.72 6.49 10.54L6.02 8C6.11 7.86 5.93 7.9 6.22 7.95C6.28 7.96 6.41 8 6.52 8.02C7.06 8.11 7.99 8.03 8.47 7.87C9.04 7.68 10 7.07 10.15 6.69C10.31 6.62 10.2 6.71 10.3 6.56C10.18 6.41 9.35 5.91 9.15 5.76C7.72 4.68 6.94 2.99 5.99 5.38C5.79 5.28 5.24 4.83 5.16 4.64C5.01 4.29 4.95 3.83 4.79 3.49L4.69 3.24C4.66 2.94 4.25 1.91 4.12 1.6C3.92 1.09 3.65 0.51 3.48 0H2.93C3.07 0.42 3.29 0.84 3.46 1.28C3.58 1.58 3.65 1.63 3.52 1.94L3.31 2.46C3.3 2.47 3.3 2.48 3.29 2.49C3.23 2.59 3.26 2.54 3.23 2.58C1.79 1.55 1.57 1.85 1.16 3.04C1 3.5 0.860002 3.97 0.660002 4.4L0.0200017 5.68C0.0800017 5.75 0.0200017 5.71 0.120002 5.71C0.170002 5.76 0.140002 5.74 0.220002 5.79L0.710002 5.93C0.940002 5.98 1.15 6.02 1.37 6.03C1.92 6.07 2.31 5.97 2.72 5.84C3.26 5.66 3.81 5.4 4.22 5.02C4.37 4.88 4.46 4.72 4.62 4.61L5.08 6.27C5.11 7.01 4.99 6.87 5.35 7.48C5.36 7.49 5.36 7.5 5.37 7.51C5.38 7.52 5.38 7.53 5.39 7.55L5.46 7.66C5.44 7.88 5.65 8.67 5.7 8.95C5.79 9.41 5.49 9.74 5.4 10.15C4.85 9.92 4.15 9.09 3.74 9.92C3.62 10.17 3.57 10.28 3.48 10.54C3.15 11.55 2.85 12.15 2.42 12.97L2.54 13.01L2.77 13.12C2.83 13.14 2.94 13.16 3.02 13.18C3.19 13.22 3.36 13.26 3.54 13.27C3.83 13.29 4.47 13.34 4.66 13.14C5.08 13.15 5.9 12.65 6.17 12.43C6.18 12.44 6.2 12.43 6.21 12.45L6.3 12.51C6.26 12.8 6.32 12.92 6.33 13.21L6.28 14.62C6.22 15.74 5.99 15.68 5.52 16.31C5.44 16.24 5.49 16.3 5.41 16.2C5.38 16.17 5.35 16.12 5.32 16.09C5.12 15.84 4.94 15.55 4.62 15.4C3.92 15.08 3.1 17.13 1.8 18.01C1.84 18.21 1.79 18.07 1.9 18.12C2.15 18.42 2.9 18.79 3.4 18.9C3.75 18.98 4.11 18.98 4.49 18.95C4.74 18.93 5.31 18.79 5.41 18.82C5.25 19.51 5.06 20.17 4.89 20.85C4.64 21.85 4.86 21.62 3.91 22.38C3.61 22.07 3.58 21.61 3.14 21.36C2.72 21.11 2.23 21.71 2.02 21.91C1.69 22.23 1.44 22.51 1.05 22.8C0.860002 22.94 0.710002 23.06 0.520002 23.2C0.380002 23.31 0.0900017 23.49 -0.00999832 23.6C0.0900017 23.75 -0.0299983 23.66 0.140002 23.73C0.230002 23.95 0.490002 24.11 0.680002 24.25C0.900002 24.41 1.11 24.54 1.37 24.64C1.8 24.81 2.69 24.95 3.24 24.87L3.47 24.82C3.48 24.82 3.5 24.8 3.51 24.8C3.52 24.8 3.53 24.79 3.54 24.78C3.86 24.83 4.06 24.6 4.33 24.54L4.31 25.2C4.31 25.97 4.07 25.95 4.47 26.71L4.51 26.78C4.51 26.79 4.52 26.81 4.53 26.82C4.48 27.17 4.71 27.85 4.77 28.22C4.54 28.4 4.43 28.55 4.26 28.63C3.51 27.46 3.44 27.11 2.34 28.2C2.02 28.51 1.75 28.77 1.39 29.06C1.16 29.25 0.440002 29.71 0.340002 29.87L0.470002 29.97C1.35 31.12 3.61 31.47 4.57 30.79C5.04 30.45 5.11 30.23 5.09 29.45L5.76 31.29C5.79 31.45 5.82 31.57 5.88 31.71C5.91 31.77 5.93 31.83 5.97 31.88C6.07 32.03 6 31.94 6.1 32.02C6.1 32.31 6.24 32.24 6.16 32.58C6.13 32.71 6.02 33.01 5.97 33.11C4.03 31.84 4.4 33.09 3.69 34.87C3.53 35.28 3.32 35.64 3.16 36.07C3.25 36.15 3.17 36.1 3.31 36.1C3.6 36.43 4.97 36.38 5.67 36.09C6.15 35.89 6.63 35.63 6.97 35.27C7.12 35.11 7.13 34.97 7.35 34.94C7.49 35.02 7.52 35.13 7.62 35.3L7.63 35.26ZM4.01 22.41C4.14 22.4 4.32 22.26 4.56 22.22C4.55 22.67 4.58 22.96 4.22 22.67C4.16 22.62 4.13 22.61 4.1 22.58C4.01 22.48 4.06 22.57 4.01 22.41ZM5.93 10.12L5.89 10.25C5.82 10.23 5.72 10.23 5.68 10.22C5.41 10.14 5.59 10.26 5.52 10.06C5.64 9.98 5.7 9.83 5.86 9.71L5.94 10.11L5.93 10.12ZM7.26 13.17L6.86 13.34C6.86 13.26 6.86 13.19 6.84 13.11C6.82 13.02 6.81 13.04 6.79 13L6.86 12.84C7.07 12.95 7.14 13 7.26 13.16V13.17ZM5.72 19.65L5.88 19.14C6.05 19.21 6.13 19.28 6.24 19.43L5.72 19.65ZM6 30.53L5.91 30.15L6.28 30.22C6.26 30.32 6.25 30.35 6.19 30.41C6.06 30.56 6.2 30.47 6 30.53ZM4.95 24.56C5.01 24.68 5.11 24.72 5.21 24.79C5.12 24.93 4.99 24.97 4.84 25C4.84 24.98 4.82 24.73 4.82 24.73C4.86 24.54 4.76 24.64 4.95 24.57V24.56ZM5.98 16.55C5.89 16.53 5.83 16.53 5.76 16.48C5.55 16.35 5.68 16.46 5.62 16.3C5.77 16.25 5.83 16.15 6.07 16.06L5.99 16.54L5.98 16.55ZM6.55 33.13H6.1C6.12 32.95 6.22 32.83 6.36 32.71L6.54 33.13H6.55ZM5.1 29.43L4.91 29.2C4.85 29.13 4.81 29.07 4.74 29.01C4.5 28.78 4.45 28.87 4.38 28.65L4.84 28.46C4.91 28.6 5.09 29.24 5.1 29.43ZM5.47 5.76L5.35 5.19L5.89 5.4C5.82 5.56 5.62 5.71 5.48 5.76H5.47ZM4.01 2.74C3.94 2.75 3.82 2.7 3.71 2.68C3.67 2.67 3.57 2.66 3.53 2.65C3.38 2.58 3.47 2.69 3.39 2.52C3.5 2.45 3.59 2.25 3.76 2.12C3.89 2.25 3.96 2.55 4 2.74H4.01Z" fill="#4EDF54"/>
</g>
</g>
<defs>
<clipPath id="clip0_1_2">
<rect width="11.67" height="37.63" fill="white"/>
</clipPath>
</defs>
</svg>
